images/soft-skills-image.svg

<svg width="643" height="624" viewBox="0 0 643 624" fill="none" xmlns="http://www.w3.org/2000/svg">
<g opacity="0.35">
<path d="M225.29 615.357C225.29 615.357 180.875 464.821 177.312 431.611C173.749 398.401 198.581 408.697 198.581 408.697C198.581 408.697 177.686 345.424 192.798 330.407C207.91 315.39 221.531 343.381 221.531 343.381C221.531 343.381 226.103 266.569 242.212 266.54C272.216 266.486 271.623 350.31 271.623 350.31C271.623 350.31 279.282 317.492 295.374 326.488C319.6 340.056 284.858 405.823 284.858 405.823C284.858 405.823 315.735 405.823 326.571 421.41C346.006 449.336 225.29 615.357 225.29 615.357Z" fill="#50BFA5"/>
<path d="M239.837 595.43C239.837 595.43 111.776 574.018 83.9218 551.329C56.0675 528.641 83.6368 518.41 83.6368 518.41C83.6368 518.41 19.3182 485.437 20.0605 463.016C20.8027 440.595 52.7601 451.995 52.7601 451.995C52.7601 451.995 -1.43448 390.194 11.3972 378.461C35.2969 356.604 97.9232 420.846 97.9232 420.846C97.9232 420.846 79.32 390.295 98.9148 385.462C128.461 378.17 150.271 453.504 150.271 453.504C150.271 453.504 144.731 423.755 165.116 427.716C201.681 434.823 239.837 595.43 239.837 595.43Z" fill="#50BFA5"/>
<path d="M165.128 427.716C144.701 424.022 150.283 453.504 150.283 453.504C150.283 453.504 128.473 378.171 98.9267 385.462C79.3319 390.296 97.9351 420.846 97.9351 420.846C97.9351 420.846 35.297 356.604 11.3972 378.467L239.41 595.471C235.319 574.736 199.371 433.903 165.128 427.716Z" fill="#3C8F7C"/>
<path d="M276.236 613.089C276.236 613.089 208.812 544.507 174.854 537.382C140.895 530.256 147.005 554.399 147.005 554.399C147.005 554.399 79.6346 495.478 64.0241 509.753C48.4135 524.027 65.3007 537.809 65.3007 537.809C65.3007 537.809 9.18228 527.881 1.13652 546.288C-11.2082 574.588 81.0834 589.985 81.0834 589.985C81.0834 589.985 42.4104 592.663 51.3943 610.405C64.9147 637.137 276.236 613.089 276.236 613.089Z" fill="#355389"/>
<path d="M1.13672 546.288C9.1706 527.881 65.2653 537.815 65.2653 537.815C65.2653 537.815 48.3781 524.033 63.9886 509.759C79.5992 495.484 144.88 546.389 144.88 546.389C144.88 546.389 129.489 516.973 163.447 524.11C197.406 531.248 276.236 613.089 276.236 613.089L1.13672 546.288Z" fill="#466EB6"/>
<path d="M603.422 617.038H230.141C215.89 617.038 204.323 605.049 204.323 590.264V574.339C204.323 559.548 215.884 547.565 230.141 547.565H603.422C586.345 566.923 586.054 596.511 602.734 616.23L603.422 617.038Z" fill="#B75742"/>
<path d="M597.657 555.528H390.616C376.366 555.528 364.799 567.516 364.799 582.307C364.799 597.093 376.354 609.081 390.616 609.081H597.675C592.929 600.956 590.426 591.716 590.423 582.307C590.42 572.897 592.916 563.656 597.657 555.528Z" fill="#F3E8EE"/>
<path d="M472.279 499.314C472.394 499.068 472.442 498.796 472.418 498.525C472.394 498.255 472.299 497.995 472.143 497.773C471.988 497.55 471.776 497.372 471.53 497.257C471.284 497.142 471.012 497.094 470.742 497.117H273.226C257.746 497.117 245.193 508.399 245.193 522.347C245.193 536.277 257.746 547.577 273.226 547.577H470.819C471.09 547.599 471.363 547.55 471.61 547.434C471.856 547.318 472.068 547.139 472.224 546.915C472.38 546.692 472.474 546.431 472.497 546.159C472.52 545.888 472.472 545.615 472.357 545.368C468.514 538.304 466.494 530.393 466.48 522.351C466.467 514.309 468.46 506.391 472.279 499.314Z" fill="#86B1F2"/>
<path d="M471.033 501.814H373.147C354.978 501.814 340.246 511.279 340.246 522.952C340.246 534.626 354.978 544.091 373.147 544.091H471.68C468.369 537.556 466.59 530.352 466.478 523.027C466.366 515.702 467.923 508.447 471.033 501.814Z" fill="#F3E8EE"/>
<path d="M445.755 511.849H433.007C430.263 511.849 428.043 512.769 428.043 513.903V514.087H445.755V511.849Z" fill="#B75742"/>
<path d="M456.627 516.991C456.627 514.141 453.296 511.837 449.193 511.837H432.817C435.934 511.837 438.458 513.589 438.458 515.75L438.381 571.025L447.418 563.9L456.633 571.025L456.627 516.991Z" fill="#F47458"/>
<path d="M435.964 495.3H321.043C310.854 495.3 302.588 485.497 302.588 473.402C302.588 461.306 310.848 451.503 321.043 451.503H435.964C427.182 463.646 426.837 481.453 435.144 494.059L435.964 495.3Z" fill="#F3E8EE"/>
<path d="M302.6 473.395C302.6 461.3 311.056 451.497 321.488 451.497H438.161C438.442 451.474 438.703 451.341 438.887 451.126C439.071 450.911 439.162 450.633 439.14 450.351C439.157 450.073 439.063 449.799 438.88 449.589C438.697 449.379 438.438 449.25 438.161 449.229H253.079C241.565 449.229 232.231 460.047 232.231 473.401C232.231 486.75 241.565 497.574 253.079 497.574H438.161C438.438 497.553 438.697 497.423 438.88 497.214C439.063 497.004 439.157 496.73 439.14 496.452C439.162 496.17 439.071 495.892 438.887 495.677C438.703 495.462 438.442 495.329 438.161 495.306H321.488C311.056 495.3 302.6 485.491 302.6 473.395Z" fill="#466EB6"/>
<path d="M415.9 462.262H403.128C400.384 462.262 398.164 463.165 398.164 464.281V464.459H415.876L415.9 462.262Z" fill="#184655"/>
<path d="M426.772 467.315C426.772 464.525 423.441 462.256 419.338 462.256H402.973C406.091 462.256 408.614 463.972 408.614 466.092L408.537 520.299L417.574 513.328L426.79 520.299L426.772 467.315Z" fill="#3C8F7C"/>
<path d="M619.081 127.44L636.045 122.975L624.543 276.349L604.188 277.026L614.455 133.016C614.547 131.72 615.043 130.486 615.873 129.486C616.702 128.486 617.824 127.771 619.081 127.44Z" fill="#184655"/>
<path d="M626.063 280.719C625.669 280.762 625.271 280.762 624.876 280.719C621.509 280.321 619.009 276.972 619.306 273.231L630.588 129.013C630.879 125.279 633.848 122.571 637.221 122.969C640.593 123.367 643.087 126.715 642.79 130.456L631.508 274.674C631.277 277.958 628.931 280.458 626.063 280.719Z" fill="#F4CF73"/>
<path d="M469.916 288.402C469.916 288.509 469.916 288.616 469.916 288.723C470.451 294.59 474.993 298.978 480.07 298.526L623.35 285.701C628.426 285.25 632.108 280.119 631.579 274.253C631.579 274.003 631.526 273.76 631.49 273.516L469.916 288.402Z" fill="#F4CF73"/>
<path d="M569.69 443.309C560.308 448.51 531.628 439.39 531.628 438.558C531.218 446.396 499.516 523.113 499.516 523.113V546.716C499.516 546.716 564.833 549.827 563.9 544.056C562.968 538.284 559.447 542.037 546.419 531.135C545.261 530.167 526.967 525.922 531.919 515.103C541.912 493.287 563.093 456.924 569.69 443.309Z" fill="#F7A491"/>
<path d="M497.396 547.565H568.9C571.483 547.304 572.082 545.19 571.174 543.925C569.297 541.295 555.593 535.102 546.383 530.987C530.351 532.863 502.135 526.694 499.552 523.03C492.759 532.151 495.953 547.268 497.396 547.565Z" fill="#2D232E"/>
<path d="M481.709 388.229C480.741 385.325 543.272 358.789 546.069 361.824C551.021 367.168 512.223 467.855 512.223 467.855L556.757 481.471C556.757 481.471 603.072 365.167 601.148 343.891C599.225 322.616 576.008 298.443 525.738 313.917C475.468 329.391 481.709 388.229 481.709 388.229Z" fill="#025454"/>
<path d="M611.177 456.543C600.62 454.62 586.939 454.073 575.99 453.883C577.278 463.633 583.548 513.642 582.402 516.711C579.522 524.259 574.282 530.675 567.463 535.006C567.463 535.006 616.016 578.815 618.95 573.756C621.883 568.697 616.782 569.374 613.606 552.683C613.327 551.198 606.302 527.904 605.887 515.334C605.049 491.345 610.815 469.85 611.177 456.543Z" fill="#F7A491"/>
<path d="M595.602 292.951C588.827 289.335 571.257 289.21 551.906 290.463C514.205 292.964 476.979 300.272 441.13 312.207L417.141 320.152L417.218 295.552C417.218 295.552 340.881 282.78 338.245 301.697C334.243 330.199 339.207 388.033 364.645 400.942C443.618 441.046 554.358 337.057 554.756 350.661C555.296 368.931 570.699 436.926 574.636 466.692C585.591 466.882 604.408 466.876 612.567 465C614.134 406.684 614.883 303.241 595.602 292.951Z" fill="#01676B"/>
<path d="M565.984 536.01L620.565 579.611C622.726 581.042 624.525 579.801 624.626 578.24C624.84 575.015 618.172 561.537 613.647 552.523C600.05 543.806 582.111 521.052 582.432 516.599C576.684 521.45 565.058 534.864 565.984 536.01Z" fill="#2D232E"/>
<path d="M321.779 93.3687C330.686 132.855 466.122 131.816 441.622 98.3149C427.075 78.4232 447.851 65.7578 446.67 54.9688C444.835 38.2063 438.695 21.5626 424.801 9.27719C413.537 -0.662731 399.244 -2.36689 385.106 2.97716C345.056 18.0414 378.616 67.646 321.779 93.3687Z" fill="#13375B"/>
<path d="M427.633 149.392C423.945 142.622 419.908 136.047 415.538 129.696C409.356 118.711 393.395 113.159 393.395 113.159C393.395 113.159 388.051 113.266 381.923 113.569C381.709 114.332 381.312 115.031 380.766 115.606C378.462 117.333 365.256 115.101 356.729 120.896C328.139 145.402 336.048 264.188 338.322 301.703L425.388 302.528C425.388 302.528 414.409 221.774 432.104 201.063C444.395 186.616 436.468 165.673 427.633 149.392Z" fill="#CA2E55"/>
<path d="M388.384 72.9725C388.384 72.9725 383.598 107.151 380.255 115.458C376.912 123.765 398.662 141.525 416.708 146.928C434.753 152.332 411.185 128.58 411.957 119.703C412.729 110.826 415.989 68.7864 415.989 68.7864L388.384 72.9725Z" fill="#F7A491"/>
<path d="M415.057 80.8282C415.585 73.875 415.971 68.7744 415.971 68.7744L388.384 72.9725C388.384 72.9725 387.689 76.9864 386.917 82.6689C398.104 89.153 408.163 87.1045 415.057 80.8282Z" fill="#F47458"/>
<path d="M397.035 10.5416C389.848 12.5445 383.612 17.0461 379.447 23.2367C372.732 33.4795 368.13 63.6139 390.236 77.7222C412.343 91.8305 429.551 71.8557 429.848 52.4627C430.145 33.0698 425.958 7.13332 397.035 10.5416Z" fill="#F7A491"/>
<path d="M434.85 46.3618C436.736 41.6736 436.053 36.9829 433.324 35.8847C430.596 34.7866 426.854 37.6969 424.967 42.3851C423.081 47.0733 423.764 51.764 426.493 52.8621C429.222 53.9603 432.963 51.05 434.85 46.3618Z" fill="#F7A491"/>
<path d="M400.301 9.90647C400.301 9.90647 386.436 40.9791 374.258 43.7699C362.079 46.5607 362.257 62.1772 362.257 62.1772C362.257 62.1772 362.531 26.0514 373.943 17.7622C385.356 9.47301 400.301 9.90647 400.301 9.90647Z" fill="#13375B"/>
<path d="M375.809 61.2922C379.222 60.2082 380.689 55.2375 379.086 50.1898C377.483 45.1421 373.416 41.9288 370.003 43.0128C366.59 44.0968 365.123 49.0676 366.726 54.1153C368.329 59.163 372.396 62.3762 375.809 61.2922Z" fill="#F7A491"/>
<path d="M534.834 274.698C529.609 272.81 521.836 272.573 521.967 271.884C522.49 269.093 545.57 278.047 542.453 273.974C540.719 271.706 523.452 263.672 519.248 265.002C515.174 266.29 488.424 273.796 488.424 273.796L415.324 256.659C415.324 256.659 396.869 214.732 395.07 178.737C379.815 180.797 369.436 184.568 356.177 191.925C362.572 226.364 378.105 282.216 395.284 292.69C402.534 297.072 488.781 287.399 488.781 287.399C488.781 287.399 507.782 286.057 510.899 284.864C513.274 283.955 519.319 280.541 522.62 279.609C530.12 277.483 543.486 282.815 543.527 281.349C543.563 280.274 540.173 276.628 534.834 274.698Z" fill="#F7A491"/>
<path d="M395.515 140.219C394.815 129.133 390.616 118.433 378.818 114.983C371.509 112.845 363.308 114.888 357.442 119.662C350.495 125.338 348.535 134.441 348.583 143.057C348.654 162.652 349.99 182.912 353.564 202.174C366.818 194.817 382.292 190.393 397.546 188.333C397.57 188.238 396.447 154.867 395.515 140.219Z" fill="#DB5279"/>
<path d="M504.783 402.255H210.742C206.356 402.255 202.15 403.997 199.049 407.098C195.947 410.199 194.205 414.406 194.205 418.792V432.698C194.205 437.084 195.947 441.29 199.049 444.391C202.15 447.492 206.356 449.235 210.742 449.235H504.783L504.629 449.074C498.576 442.775 495.209 434.369 495.237 425.633C495.266 416.897 498.689 408.514 504.783 402.255Z" fill="#F47458"/>
<path d="M499.576 409.213H342.372C337.987 409.215 333.782 410.958 330.682 414.059C327.582 417.16 325.841 421.365 325.841 425.75C325.841 430.136 327.583 434.342 330.684 437.443C333.786 440.545 337.992 442.287 342.378 442.287H499.576C496.735 437.238 495.243 431.543 495.243 425.75C495.243 419.957 496.735 414.262 499.576 409.213Z" fill="#F3E8EE"/>
</g>
</svg>

<svg xmlns="http://www.w3.org/2000/svg" viewBox="0 0 642.81 623.02"><defs><style>.cls-1{opacity:0.35;}.cls-2{fill:#50bfa5;}.cls-3{fill:#3c8f7c;}.cls-4{fill:#355389;}.cls-5{fill:#466eb6;}.cls-6{fill:#b75742;}.cls-7{fill:#f3e8ee;}.cls-8{fill:#86b1f2;}.cls-9{fill:#f47458;}.cls-10{fill:#184655;}.cls-11{fill:#f4cf73;}.cls-12{fill:#f7a491;}.cls-13{fill:#2d232e;}.cls-14{fill:#025454;}.cls-15{fill:#01676b;}.cls-16{fill:#13375b;}.cls-17{fill:#ca2e55;}.cls-18{fill:#db5279;}</style></defs><title>soft-skills-image</title><g id="Calque_2" data-name="Calque 2"><g id="Calque_1-2" data-name="Calque 1"><g class="cls-1"><path class="cls-2" d="M225.29,615.36s-44.41-150.54-48-183.75,21.27-22.91,21.27-22.91-20.89-63.27-5.78-78.29,28.73,13,28.73,13,4.57-76.81,20.68-76.84c30-.05,29.41,83.77,29.41,83.77s7.66-32.82,23.75-23.82c24.23,13.57-10.52,79.33-10.52,79.33s30.88,0,41.71,15.59C346,449.34,225.29,615.36,225.29,615.36Z"/><path class="cls-2" d="M239.84,595.43S111.78,574,83.92,551.33s-.28-32.92-.28-32.92-64.32-33-63.58-55.39,32.7-11,32.7-11-54.19-61.8-41.36-73.53c23.9-21.86,86.53,42.39,86.53,42.39s-18.6-30.55,1-35.38c29.55-7.29,51.36,68,51.36,68s-5.54-29.75,14.85-25.79C201.68,434.82,239.84,595.43,239.84,595.43Z"/><path class="cls-3" d="M165.13,427.72C144.7,424,150.28,453.5,150.28,453.5s-21.81-75.33-51.36-68c-19.59,4.83-1,35.38-1,35.38S35.3,356.6,11.4,378.47l228,217C235.32,574.74,199.37,433.9,165.13,427.72Z"/><path class="cls-4" d="M276.24,613.09s-67.42-68.58-101.38-75.71-27.85,17-27.85,17-67.37-58.92-83-44.65,1.28,28.06,1.28,28.06-56.12-9.93-64.16,8.48C-11.21,574.59,81.08,590,81.08,590s-38.67,2.68-29.69,20.42C64.91,637.14,276.24,613.09,276.24,613.09Z"/><path class="cls-5" d="M1.14,546.29c8-18.41,64.13-8.47,64.13-8.47S48.38,524,64,509.76s80.89,36.63,80.89,36.63S129.49,517,163.45,524.11s112.79,89,112.79,89Z"/><path class="cls-6" d="M603.42,617H230.14c-14.25,0-25.82-12-25.82-26.77V574.34c0-14.79,11.56-26.77,25.82-26.77H603.42a52.89,52.89,0,0,0-.69,68.66Z"/><path class="cls-7" d="M597.66,555.53h-207c-14.25,0-25.82,12-25.82,26.78s11.55,26.77,25.82,26.77H597.67a53.12,53.12,0,0,1,0-53.55Z"/><path class="cls-8" d="M472.28,499.31a1.55,1.55,0,0,0-1.54-2.2H273.23c-15.48,0-28,11.28-28,25.23s12.55,25.23,28,25.23H470.82a1.56,1.56,0,0,0,1.4-.66,1.55,1.55,0,0,0,.27-.76,1.56,1.56,0,0,0-.14-.79,48.33,48.33,0,0,1-.08-46.05Z"/><path class="cls-7" d="M471,501.81H373.15c-18.17,0-32.9,9.46-32.9,21.14s14.73,21.14,32.9,21.14h98.53a48.24,48.24,0,0,1-.65-42.28Z"/><path class="cls-6" d="M445.76,511.85H433c-2.74,0-5,.92-5,2.05v.18h17.71Z"/><path class="cls-9" d="M456.63,517c0-2.85-3.33-5.15-7.43-5.15H432.82c3.12,0,5.64,1.75,5.64,3.91L438.38,571l9-7.12,9.21,7.13Z"/><path class="cls-7" d="M436,495.3H321c-10.19,0-18.45-9.8-18.45-21.9s8.26-21.9,18.45-21.9H436c-8.78,12.14-9.13,30-.82,42.56Z"/><path class="cls-5" d="M302.6,473.39c0-12.1,8.46-21.9,18.89-21.9H438.16a1.14,1.14,0,0,0,0-2.27H253.08c-11.51,0-20.85,10.82-20.85,24.17s9.33,24.17,20.85,24.17H438.16a1.14,1.14,0,0,0,0-2.27H321.49C311.06,495.3,302.6,485.49,302.6,473.39Z"/><path class="cls-10" d="M415.9,462.26H403.13c-2.74,0-5,.9-5,2v.18h17.71Z"/><path class="cls-3" d="M426.77,467.32c0-2.79-3.33-5.06-7.43-5.06H403c3.12,0,5.64,1.72,5.64,3.84l-.08,54.21,9-7,9.22,7Z"/><path class="cls-10" d="M619.08,127.44,636,123l-11.5,153.37-20.36.68,10.27-144a6.23,6.23,0,0,1,4.63-5.58Z"/><path class="cls-11" d="M626.06,280.72a5.48,5.48,0,0,1-1.19,0c-3.37-.4-5.87-3.75-5.57-7.49L630.59,129c.29-3.73,3.26-6.44,6.63-6s5.87,3.75,5.57,7.49L631.51,274.67A6.28,6.28,0,0,1,626.06,280.72Z"/><path class="cls-11" d="M469.92,288.4v.32c.54,5.87,5.08,10.26,10.15,9.8L623.35,285.7c5.08-.45,8.76-5.58,8.23-11.45a5,5,0,0,0-.09-.74Z"/><path class="cls-12" d="M569.69,443.31c-9.38,5.2-38.06-3.92-38.06-4.75-.41,7.84-32.11,84.55-32.11,84.55v23.6s65.32,3.11,64.38-2.66-4.45-2-17.48-12.92c-1.16-1-19.45-5.21-14.5-16C541.91,493.29,563.09,456.92,569.69,443.31Z"/><path class="cls-13" d="M497.4,547.57h71.5c2.58-.26,3.18-2.37,2.27-3.64-1.88-2.63-15.58-8.82-24.79-12.94-16,1.88-44.25-4.29-46.83-8C492.76,532.15,496,547.27,497.4,547.57Z"/><path class="cls-14" d="M481.71,388.23c-1-2.9,61.56-29.44,64.36-26.4,5,5.34-33.85,106-33.85,106l44.53,13.62s46.32-116.3,44.39-137.58-25.14-45.45-75.41-30S481.71,388.23,481.71,388.23Z"/><path class="cls-12" d="M611.18,456.54c-10.56-1.92-24.24-2.47-35.19-2.66,1.29,9.75,7.56,59.76,6.41,62.83A37.52,37.52,0,0,1,567.46,535S616,578.82,619,573.76s-2.17-4.38-5.34-21.07c-.28-1.48-7.3-24.78-7.72-37.35C605,491.35,610.81,469.85,611.18,456.54Z"/><path class="cls-15" d="M595.6,293c-6.77-3.62-24.34-3.74-43.7-2.49a443.66,443.66,0,0,0-110.78,21.74l-24,7.95.08-24.6s-76.34-12.77-79,6.14c-4,28.5,1,86.34,26.4,99.24,79,40.1,189.71-63.88,190.11-50.28.54,18.27,15.94,86.26,19.88,116,11,.19,29.77.18,37.93-1.69C614.13,406.68,614.88,303.24,595.6,293Z"/><path class="cls-13" d="M566,536l54.58,43.6c2.16,1.43,4,.19,4.06-1.37.21-3.22-6.45-16.7-11-25.72-13.6-8.72-31.54-31.47-31.21-35.92C576.68,521.45,565.06,534.86,566,536Z"/><path class="cls-16" d="M321.78,93.37c8.91,39.49,144.34,38.45,119.84,4.95-14.55-19.89,6.23-32.56,5-43.35-1.84-16.76-8-33.41-21.87-45.69C413.54-.66,399.24-2.37,385.11,3,345.06,18,378.62,67.65,321.78,93.37Z"/><path class="cls-17" d="M427.63,149.39a222.62,222.62,0,0,0-12.1-19.7c-6.18-11-22.14-16.54-22.14-16.54s-5.34.11-11.47.41a4.87,4.87,0,0,1-1.16,2c-2.3,1.73-15.51-.51-24,5.29C328.14,145.4,336,264.19,338.32,301.7l87.07.83s-11-80.75,6.72-101.47C444.39,186.62,436.47,165.67,427.63,149.39Z"/><path class="cls-12" d="M388.38,73s-4.79,34.18-8.13,42.49,18.41,26.07,36.45,31.47-5.52-18.35-4.75-27.22,4-50.92,4-50.92Z"/><path class="cls-9" d="M415.06,80.83,416,68.77,388.38,73s-.7,4-1.47,9.7C398.1,89.15,408.16,87.1,415.06,80.83Z"/><path class="cls-12" d="M397,10.54a31.34,31.34,0,0,0-17.59,12.7c-6.71,10.24-11.32,40.38,10.79,54.49s39.32-5.87,39.61-25.26S426,7.13,397,10.54Z"/><path class="cls-12" d="M434.85,46.36c1.89-4.69,1.2-9.38-1.53-10.48s-6.47,1.81-8.36,6.5-1.2,9.38,1.53,10.48S433,51,434.85,46.36Z"/><path class="cls-16" d="M400.3,9.91s-13.86,31.07-26,33.86-12,18.41-12,18.41.27-36.13,11.69-44.42S400.3,9.91,400.3,9.91Z"/><path class="cls-12" d="M375.81,61.29c3.41-1.08,4.88-6.05,3.28-11.1S373.42,41.93,370,43s-4.88,6.05-3.28,11.1S372.4,62.38,375.81,61.29Z"/><path class="cls-12" d="M534.83,274.7c-5.22-1.89-13-2.12-12.87-2.81.52-2.79,23.6,6.16,20.49,2.09-1.73-2.27-19-10.3-23.21-9s-30.82,8.79-30.82,8.79l-73.1-17.14s-18.46-41.93-20.25-77.92c-15.26,2.06-25.63,5.83-38.89,13.19,6.39,34.44,21.93,90.29,39.11,100.76,7.25,4.38,93.5-5.29,93.5-5.29s19-1.34,22.12-2.53c2.38-.91,8.42-4.32,11.72-5.26,7.5-2.13,20.87,3.21,20.91,1.74C543.56,280.27,540.17,276.63,534.83,274.7Z"/><path class="cls-18" d="M395.52,140.22c-.7-11.09-4.9-21.79-16.7-25.24-7.31-2.14-15.51-.1-21.38,4.68-6.95,5.68-8.91,14.78-8.86,23.4.07,19.59,1.41,39.85,5,59.12,13.25-7.36,28.73-11.78,44-13.84C397.57,188.24,396.45,154.87,395.52,140.22Z"/><path class="cls-9" d="M504.78,402.26h-294a16.54,16.54,0,0,0-16.54,16.54V432.7a16.54,16.54,0,0,0,16.54,16.54h294l-.15-.16a33.67,33.67,0,0,1,.15-46.82Z"/><path class="cls-7" d="M499.58,409.21H342.37a16.54,16.54,0,0,0,0,33.07h157.2a33.72,33.72,0,0,1,0-33.07Z"/></g></g></g></svg>
